X:158
T: ICH HABE DEN FRUEHLING GESEHEN
N: E0739A
O: Europa, Mitteleuropa, Deutschland, Rheinland
R: Liebes - Lied, Leid, Klage, Tod
M: 6/8
L: 1/16
K: F
C2 | A3GF2F2E2F2 | A2G2z6
C2 | B3AB2c2B2B2 | A6z4
AB | c2B2A2A2B2c2 | d6d4
dd | c3dc2c2B2B2 | A6z4
AB | c2B2A2A2B2c2 | d6d4
dd | c3dc2c2B2B2 | A6z4

